icons/stethoscope.svg

<svg width="24" height="24" viewBox="0 0 24 24" fill="none" xmlns="http://www.w3.org/2000/svg">
<path fill-rule="evenodd" clip-rule="evenodd" d="M3 3C3 2.44772 3.44772 2 4 2H6.125C6.67728 2 7.125 2.44772 7.125 3C7.125 3.55228 6.67728 4 6.125 4H5V8.29412C5 10.6624 6.9275 12.5882 9.3125 12.5882C11.6975 12.5882 13.625 10.6624 13.625 8.29412V4H12.5C11.9477 4 11.5 3.55228 11.5 3C11.5 2.44772 11.9477 2 12.5 2H14.625C15.1773 2 15.625 2.44772 15.625 3V8.29412C15.625 11.4336 13.3213 14.032 10.3125 14.5097V16.7647C10.3125 18.441 11.888 20 14.0938 20C15.9445 20 17.3515 18.9024 17.7565 17.559C16.5844 17.1105 15.75 15.9777 15.75 14.6471C15.75 12.922 17.1524 11.5294 18.875 11.5294C20.5976 11.5294 22 12.922 22 14.6471C22 16.0503 21.0721 17.2334 19.7988 17.6261C19.3396 20.184 16.867 22 14.0938 22C11.0183 22 8.3125 19.7666 8.3125 16.7647V14.5097C5.30367 14.032 3 11.4336 3 8.29412V3ZM18.875 13.5294C18.2504 13.5294 17.75 14.0331 17.75 14.6471C17.75 15.2611 18.2504 15.7647 18.875 15.7647C19.4996 15.7647 20 15.2611 20 14.6471C20 14.0331 19.4996 13.5294 18.875 13.5294Z" fill="black"/>
</svg>

<svg
  width="24"
  height="24"
  viewBox="0 0 24 24"
  xmlns="http://www.w3.org/2000/svg"
>
  <path
    fill-rule="evenodd"
    clip-rule="evenodd"
    d="M3 3a1 1 0 0 1 1-1h2.125a1 1 0 0 1 0 2H5v4.294c0 2.368 1.928 4.294 4.313 4.294 2.384 0 4.312-1.926 4.312-4.294V4H12.5a1 1 0 1 1 0-2h2.125a1 1 0 0 1 1 1v5.294c0 3.14-2.304 5.738-5.313 6.216v2.255c0 1.676 1.576 3.235 3.782 3.235 1.85 0 3.258-1.098 3.662-2.441a3.118 3.118 0 0 1-2.006-2.912 3.121 3.121 0 0 1 3.125-3.118A3.121 3.121 0 0 1 22 14.647a3.12 3.12 0 0 1-2.201 2.98C19.339 20.183 16.867 22 14.094 22c-3.076 0-5.781-2.233-5.781-5.235V14.51C5.303 14.032 3 11.434 3 8.294V3zm15.875 10.53c-.625 0-1.125.503-1.125 1.117s.5 1.118 1.125 1.118S20 15.26 20 14.647c0-.614-.5-1.118-1.125-1.118z"
  />
</svg>
